X:2599
L:1/8
M:3/8
K:Amin
 ABd | e2 A |{g} ^f2 d | e2 A | ABd | e2 A | g2 e | dBG | ABd | e2 A |{g} ^f2 d | e2 g | gag | 
 g^fe | dBg | dBG || gag | g^fe | ^f2 g | a2 e | gag | g^fe | dBg | dBG | gag | g^fe | ^f2 g | 
 a2 b | bag | g^fe | dBg | dBG ||

